X:1206
T:Svingedans/Bugadans
T:(FMK Ske 29 bild 122)
T:efter en Gubbe från Sjöbotrakten
R:Svingedans
R:S:efter en Gubbe från Sjöbotrakten
O:Sjöbotrakten, Skåne
B:John Enningers samlingar
Z:Åke Persson 2012-03-17
M:3/4
L:1/8
Q:1/4=108
%%printtAmpo 0
%%MIG,I rdtio 2 1
K:G
|: DG B2 B2 | AGFG A2 | AB c2 cB | Ad dA G2 :|
|: d2 BGBd | dcAFAc | BAFAdA | FA G2 G2 :|

